X:1
T:D Major Daniel Belknap, 1797 (Revised 1800)
T:Isaaac Watts, 1706 (Hymn 66, Book 2)      86. 86. (C. M.)   
T:Shoreham
T:Transcribed from The Evangelical Harmony, 1800.
%%score [ 1 2 3 4 ]
L:1/8
Q:1/4=120
M:4/4
K:D
V:1 treble nm="Tr." snm="Tr."
V:2 treble nm="C." snm="C."
V:3 treble-8 nm="T." snm="T."
V:4 bass nm="B." snm="B."
V:1
 A8 | d2 d2 d2 A2 | B2 B2 A2 A2 | d2 B2 c>d e2 | A8- | A4 F4 | G2 G2 G2 A2 | A2 AB c2 d2 | %8
w: 1.~There|is a land of|pure de- light, Where|saints im- mor- * tal|reign;~|_ In-|fi- nite day ex-|cludes the * night, And|
 (d>cBA B2) ed | (c2 B>c A2) A2 | A8 |: z4 d4 | A2 A2 A2 A2 | d2 d2 d2 A2 | A2 F2 G>d B>d | %15
w: plea- * * * * sures *|ba- * * * nish|pain.|Sweet|fields be- yond the|swel- ling flood Stand|dressed in li- * ving *|
 (c3 B A2) FG | A2 B>c d2 d>c | B2 B2 A2 A2 | (B2 e4) A2 | (Bdc>B A2) A2 | A8 :| %21
w: green,~ _ _ So *|to the * Jews old *|Ca- naan stood, While|Jor- * dan|rolled~ _ _ _ _ be-|tween.|
V:2
 F8 | F2 F2 G2 A2 | G2 G2 E2 F2 | D2 D2 F2 G2 | F8 | z4 A4 | G2 G2 G2 F2 | E2 E2 F2 A2 | G6 [GB]2 | %9
w: 2.~There|ev- er- las- ting|spring a- bides, And|ne- ver- with- ering|flowers:|Death,|like a nar- row|sea, di- vides This|heav'n- ly|
 (A2 ^G>A F2) E2 | F8 |: z4 D4 | F2 F2 F2 A2 | F2 FG A2 A2 | A2 A2 G2 F2 | E6 F2 | F2 G2 A2 A2 | %17
w: land~ _ _ _ from|ours.|But|tim- orous mor- tals|start and * shrink To|cross this nar- row|sea, And|lin- ger shi- vering|
 G2 G2 E2 F2 | (D2 G4) F2 | (D2 A>G F2) E2 | F8 :| %21
w: on the brink, And|fear~ _ to|launch~ _ _ _ a-|way.|
V:3
 d8 | f2 d2 B2 cd | e>f ed c2 A2 | G>A B2 A>B c2 | d8 | z4 d4 | B2 B2 B2 d2 | e>d cB A2 F2 | %8
w: 3.~O,|could we make our *|doubts * re- * move, Those|gloo- * my doubts * that|rise,|And|see the Ca- naan|that * we * love With|
 (G>ABc d2) g2 | (f2 ^e>f d2) c2 | d8 |: z4 A4 | d2 d2 d2 f2 | a2 ag f2 fe | d2 dc B>c d2 | %15
w: un- * * * * be-|clou- * * * ded|eyes!|Could|we but climb where|Mo- ses * stood, And *|view the * land- * scape|
 (e3 d c2) cB | A2 G2 F2 A2 | g>f ed c2 A2 | (G3 A B2) d2 | (g2 e2 A>B) c2 | d8 :| %21
w: o'er,~ _ _ Not *|Jor- dan's stream, nor|death's * cold * flood, Should|fright~ _ _ us|from~ _ _ _ the|shore.|
V:4
 D,8 | D,2 D,2 G,2 F,2 | E,2 E,2 A,2 F,2 | G,2 G,2 F,2 E,2 | D,8- | D,4 D,4 | E,2 E,2 E,2 D,2 | %7
 A,2 A,G, F,2 D,2 | G,6 E,2 | (F,2 ^G,2 A,2) A,,2 | D,8 |: z4 D,4 | D,2 D,2 D,2 D,2 | %13
 D,2 D,2 D,2 D,2 | D,2 D,2 E,2 D,2 | A,6 A,G, | F,2 E,2 D,2 D,2 | E,2 E,2 A,2 F,2 | %18
 (G,2 F,2 E,2) D2 | %19
"^__________________________________________________\nEdited by B. C. Johnston, 2016\nMeasure 10, Bass: second note changed from G to G# (as in Counter)." A,4 A,,4 | %20
 D,8 :| %21

